X:1
T:Violin Caprice No. 1 in E Major
T:Violin Caprice No. 1 in E Major
T:Op. 1, No. 1
T:Niccolò Paganini
C:Niccolò Paganini
%%score ( 1 2 )
L:1/8
Q:1/4=85
M:2/4
K:E
V:1 treble nm="Violin" snm="Vln."
V:2 treble 
V:1
"^Andante" (.E/4.G/4.B/4.e/4) (.e/4.B/4.G/4.E/4) | %1
 (.D/4.F/4.B/4.f/4) (.f/4.B/4.F/4.D/4) (.E/4.G/4.B/4.e/4) (.e/4.B/4.G/4.E/4) | %2
 (.B,/4.F/4.d/4.b/4) (.b/4.d/4.F/4.B,/4) (.E/4.G/4.B/4.e/4) (.e/4.B/4.G/4.E/4) | %3
 (.D/4.F/4.B/4.f/4) (.f/4.B/4.F/4.D/4) (.E/4.G/4.B/4.e/4) (.e/4.B/4.G/4.E/4) | %4
 (.B,/4.F/4.d/4.b/4) (.b/4.d/4.F/4.B,/4) (.G,/4.E/4.B/4.g/4) (.g/4.B/4.E/4.G,/4) | %5
 (.A,/4.E/4.c/4.a/4) (.c'/.e'/) (.^A,/4.F/4.c/4.^a/4) (.a/4.c/4.F/4.A,/4) | %6
 (.B,/4.F/4.d/4.b/4) (.d'/.f'/) (.D/4.B/4.f/4.d'/4) (.d'/4.f/4.B/4.D/4) | %7
 (.E/4.B/4.g/4.e'/4) (.e'/4.g/4.B/4.E/4) (.F/4.d/4.b/4.f'/4) (.f'/4.b/4.d/4.F/4) | %8
 (.G/4.e/4.b/4.g'/4) (.g'/4.b/4.e/4.G/4) (.A/4.e/4.c'/4.a'/4) (.a'/4.c'/4.e/4.A/4) | %9
!8va(! (.^A/4.=g/4.e'/4.c''/4) (.c''/4.e'/4.g/4.A/4) (.c/4.^a/4.=g'/4.e''/4) (.e''/4.g'/4.a/4.c/4) | %10
 (.^A/4.=g/4.e'/4.c''/4) (.c''/4.e'/4.g/4.A/4)!8va)! (.=G/4.e/4.c'/4.^a'/4) (.a'/4.c'/4.e/4.G/4) | %11
 (.E/4.c/4.^a/4.=g'/4) (.g'/4.a/4.c/4.E/4) (.C/4.^A/4.=g/4.e'/4) (.e'/4.g/4.A/4.C/4) | %12
 (.B,/4.F/4.d/4.b/4) (.d'/.f'/) (.=A,/4.D/4.B/4.f/4) (.f/4.B/4.D/4.A,/4) | %13
 (.G,/4.E/4.B/4.g/4) (.b/.e'/) (.A,/4.D/4.B/4.f/4) (.f/4.B/4.D/4.A,/4) | %14
 (.G,/4.E/4.B/4.g/4) (.b/.e'/) (.A,/.[ca]/) (.B,/.[Geb]/) | %15
 (.C/.[Aec']/) (.=C/.[^Ae=c']/) (.B,/.[Geb]/) (.B,/.[Fdb]/) | (E[Bge']) | %17
[K:G] (.E/4.G/4.B/4.e/4) (.e/4.B/4.G/4.E/4) | %18
 (.^D/4.F/4.B/4.f/4) (.f/4.B/4.F/4.D/4) (.E/4.G/4.B/4.e/4) (.e/4.B/4.G/4.E/4) | %19
 (.B,/4.F/4.^d/4.b/4) (.b/4.d/4.F/4.B,/4) (.E/4.G/4.B/4.e/4) (.e/4.B/4.G/4.E/4) | %20
 (.^D/4.F/4.B/4.f/4) (.f/4.B/4.F/4.D/4) (.E/4.G/4.B/4.e/4) (.e/4.B/4.G/4.E/4) | %21
 (.B,/4.F/4.^d/4.b/4) (.b/4.d/4.F/4.B,/4) (.B,/4.F/4.=d/4.b/4) (.b/4.d/4.F/4.B,/4) | %22
 (.A,/4.F/4.d/4.c'/4) (.c'/4.d/4.F/4.A,/4) (.A,/4.F/4.d/4.a/4) (.a/4.d/4.F/4.A,/4) | %23
 (.G,/4.D/4.B/4.d'/4) (.d'/4.B/4.D/4.G,/4) (.G,/4.D/4.d/4.g'/4) (.g'/4.d/4.D/4.G,/4) | %24
 (.G,/4.D/4.g/4.b'/4) (.b'/4.g/4.D/4.G,/4) (.G,/4.D/4.b/4.d''/4) (.d''/4.b/4.D/4.G,/4) | %25
 (.C/4.G/4.e/4.c'/4) (.^C/.[Age']/) (.D/4.A/4.f/4.d'/4) (.^D/.[Baf']/) | %26
 (.E/4.B/4.g/4.e'/4) (.F/.[daf']/) (.G/.[dbg']/) (.A/.[fd'a']/) | %27
!8va(! (.B/.[gd'b']/) (.c/.[ge'd'']/) (.^c/4._b/4.g'/4.e''/4) (g''/!8va)!.^C/) | %28
 (3D/[=bd']/[ac']/ (3[gb]/[fa]/[eg]/ (3[df]/[ce]/[Bd]/ (3[Ac]/[GB]/[FA]/ | %29
 (.G,/4.D/4.B/4.g/4) (.g/4.B/4.D/4.G,/4) (.G,/4._E/4.c/4.f/4) (.f/4.c/4.E/4.G,/4) | %30
 (3[G,D]/[bd']/[ac']/ (3[gb]/[fa]/[eg]/ (3[df]/[ce]/[Bd]/ (3[Ac]/[GB]/[FA]/ | %31
 (.G,/4.D/4.B/4.g/4) (.g/4.B/4.D/4.G,/4) (.G,/4._E/4.c/4.f/4) (.f/4.c/4.E/4.G,/4) | %32
 (3[G,D]/[bd']/[ac']/ (3[gb]/[fa]/[eg]/ (3[df]/[ce]/[Bd]/ (3[Ac]/[GB]/[FA]/ | %33
 (.G,/4.D/4.B/4.g/4) (.g/4.B/4.D/4.G,/4) (.G,/4.D/4._B/4.g/4) (.g/4.B/4.D/4.G,/4) | %34
 (3[G,_E]/[_b_d']/[_ac']/ (3[gb]/[gb]/[=fa]/ (3[_eg]/[_df]/[ce]/ (3[_Bd]/[_Ac]/[GB]/ | %35
 (._A,/4._E/4.c/4._a/4) (.a/4.c/4.E/4.A,/4) (.A,/4.E/4._c/4.a/4) (.a/4.c/4.E/4.A,/4) | %36
 (3[^G,E]/[bd']/[a^c']/ (3[^gb]/[gb]/[fa]/ (3[eg]/[df]/[^ce]/ (3[Bd]/[Ac]/[^GB]/ | %37
 (.A,/4.E/4.^c/4.a/4) (.a/4.c/4.E/4.A,/4) (.A,/4.E/4.=c/4.a/4) (.a/4.c/4.E/4.A,/4) | %38
 (3[A,=F]/[=c'_e']/[_bd']/ (3[ac']/[ac']/[gb]/ (3[=fa]/[_eg]/[df]/ (3[ce]/[_Bd]/[Ac]/ | %39
 (._B,/4.=F/4.d/4._b/4) (.b/4.d/4.F/4.B,/4) (.B,/4.F/4._d/4.b/4) (.b/4.d/4.F/4.B,/4) | %40
 (._B,/4._G/4._d/4._b/4) (.b/4.d/4.G/4.B,/4) (.^A,/4.^F/4.e/4.^c'/4) (.c'/4.e/4.F/4.A,/4) | %41
 (.B,/4.F/4.^d/4.b/4) (.b/4.d/4.F/4.B,/4) (.B,/4.F/4.=d/4.b/4) (.b/4.d/4.F/4.B,/4) | %42
 (.B,/4.G/4.d/4.b/4) (.b/4.d/4.G/4.B,/4) (.B,/4.G/4.=f/4.d'/4) (.d'/4.f/4.G/4.B,/4) | %43
 (.C/4.G/4.e/4.c'/4) (.c'/4.e/4.G/4.C/4) (.C/4.G/4._e/4.c'/4) (.c'/4.e/4.G/4.C/4) | %44
 (.C/4._A/4._e/4.c'/4) (.c'/4.e/4.A/4.C/4) (.C/4.A/4._g/4._e'/4) (.e'/4.g/4.A/4.C/4) | %45
 z2!p! (._D/4.=F/4._d/4.=f/4) (.f/4.d/4.F/4.D/4) | %46
 (.C/4._E/4._e/4._g/4) (.g/4.e/4.E/4.C/4) (._D/4.=F/4._d/4.=f/4) (.f/4.d/4.F/4.D/4) | %47
 (._A,/4._E/4.c/4._a/4) (.a/4.c/4.E/4.A,/4) (.^C/4.=E/4.^c/4.e/4) (.e/4.c/4.E/4.C/4) | %48
 (.^B,/4.^D/4.^d/4.f/4) (.f/4.d/4.D/4.B,/4) (.^C/4.E/4.^c/4.e/4) (.e/4.c/4.E/4.C/4) | %49
 (.^G,/4.^D/4.^B/4.^g/4) (.g/4.B/4.D/4.G,/4) (.^C/4.E/4.^c/4.e/4) (.e/4.c/4.E/4.C/4) | %50
 (.=B,/4.^G/4.=d/4.e/4) (.e/4.d/4.G/4.B,/4) (.A,/4.E/4.^c/4.a/4) (.a/4.c/4.E/4.A,/4) | %51
!<(! (.^A,/4.G/4.e/4.^c'/4) (.c'/4.e/4.G/4.A,/4) (.B,/.[F^db]/) (.=A,/.[Fdb]/) | %52
 (.^G,/.[EB^g]/) (.A,/.[E^ca]/) (.B,/.[^Geb]/) (.B,/.[F^db]/) || %53
[K:E] (E[Bge'])!<)!!mf! (.E/4.G/4.B/4.e/4) (.e/4.B/4.G/4.E/4) | %54
 (.E/4.A/4.=c/4.e/4) (.e/4.c/4.A/4.E/4) (.E/4.=G/4.^A/4.e/4) (.e/4.A/4.G/4.E/4) | %55
 (.E/4.G/4.B/4.e/4) (3[gb]/[fa]/[eg]/ (3[ac']/[gb]/[fa]/ (3[eg]/[df]/[ce]/ | %56
 (.B,/4.G/4.e/4.b/4) (.b/4.e/4.G/4.B,/4) (.B,/4.F/4.d/4.b/4) (.b/4.d/4.F/4.B,/4) | %57
 (.E/4.G/4.B/4.e/4) (.g'/.e'/) (.E/4.B/4.g/4.e'/4) (.e'/4.g/4.B/4.E/4) | %58
 (.E/4.=c/4.a/4.e'/4) (.e'/4.a/4.c/4.E/4) (.E/4.^A/4.=g/4.e'/4) (.e'/4.g/4.A/4.E/4) | %59
 (.E/4.B/4.g/4.e'/4) (3[EG]/[FA]/[GB]/ (3[Ac]/[Bd]/[ce]/ (3[df]/[eg]/[fa]/ | %60
 (.B/4.e/4.g/4.e'/4) (.e'/4.g/4.e/4.B/4) (.B/4.d/4.f/4.d'/4) (.d'/4.f/4.d/4.B/4) | %61
 (.E/4.B/4.g/4.e'/4) (.g'/4.g/4.B/4.E/4) (.E/4.=c/4.a/4.e'/4) (.a'/4.a/4.c/4.E/4) | %62
 (.E/4.B/4.g/4.e'/4) (.g'/4.g/4.B/4.E/4) (.E/4.=c/4.a/4.e'/4) (.a'/4.a/4.c/4.E/4) | %63
 (.E/4.B/4.g/4.e'/4) (.g'/4.g/4.B/4.E/4) (.^C/4.^A/4.=g/4.e'/4) (.C/.^A,/) | %64
 (3B,/[gb]/[fa]/ (3[eg]/[df]/[ce]/ (3[Bd]/[Ac]/[GB]/ (3[FA]/[EG]/[DF]/ | %65
 (.E/4.G/4.B/4.e/4) (.g/4.B/4.G/4.E/4) (.E/4.A/4.=c/4.e/4) (.a/4.c/4.A/4.E/4) | %66
 (.E/4.G/4.B/4.e/4) (.g/4.B/4.G/4.E/4) (.E/4.A/4.=c/4.e/4) (.a/4.c/4.A/4.E/4) | %67
 (.E/4.G/4.B/4.e/4) (.g/4.B/4.G/4.E/4) (.C/4.=G/4.^A/4.e/4) (.=g/.e/) | %68
 (3B,/[Be]/[GB]/ (3b/[B,D]/[CE]/ (3[DF]/[EG]/[FA]/ (3[GB]/[Ac]/[Bd]/ | %69
 (.e/4.g/4.b/4 .!0!e/4) (.e/4 .b/4.g/4.e/4) (.e/4.a/4.=c'/4 .e/4) (.e/4 .c'/4.a/4.e/4) | %70
 (.e/4.g/4.b/4 .e/4) (.e/4 .b/4.g/4.e/4) (.d/4.f/4.a/4 .e/4) (.e/4 .a/4.f/4.d/4) | %71
 (.c/4.e/4.a/4 .e/4) (.e/4 .a/4.e/4.c/4) (.B/4.d/4.g/4 .e/4) (.e/4 .g/4.d/4.B/4) | %72
 (.A/4.c/4.f/4 .e/4) (.e/4 .f/4.c/4.A/4) (.F/4.A/4.d/4 .e/4) (.e/4 .d/4.A/4.F/4) | %73
 (.E/4.B/4.e/4 .e/4) (.e/4 .e/4.B/4.E/4) (.=F/4.A/4.d/4 .e/4) (.e/4 .d/4.A/4.F/4) | %74
 (.E/4.B/4.e/4 .e/4) (.e/4 .e/4.B/4.E/4) (.=F/4.A/4.d/4 .e/4) (.e/4 .d/4.A/4.F/4) | %75
!p! (.E/4.B/4.e/4 .e/4) (.e/4 .e/4.B/4.E/4) (.=F/4.A/4.d/4 .e/4) (.e/4 .d/4.A/4.F/4) | %76
 (.E/4.B/4.e/4 .e/4) (.e/4 .e/4.B/4.E/4) (.=F/4.A/4.d/4 .e/4) (.e/4 .d/4.A/4.F/4) | %77
!f! x/ e/ z x/ e/ z | %78
 (.E/4.B/4.e/4 .e/4) (.e/4 .g/4.B/4.E/4) (.E/4.B/4.e/4 .e/4) (.e/4 .g/4.B/4.E/4) | %79
 e2 !fermata!z2 |] %80
V:2
 x2 | x4 | x4 | x4 | x4 | x4 | x4 | x4 | x4 |!8va(! x4 | x2!8va)! x2 | x4 | x4 | x4 | x4 | x4 | %16
 x2 |[K:G] x2 | x4 | x4 | x4 | x4 | x4 | x4 | x4 | x4 | x4 |!8va(! x7/2!8va)! x/ | x4 | x4 | x4 | %31
 x4 | x4 | x4 | x4 | x4 | x4 | x4 | x4 | x4 | x4 | x4 | x4 | x4 | x4 | x4 | x4 | x4 | x4 | x4 | %50
 x4 | x4 | x4 ||[K:E] x4 | x4 | x4 | x4 | x4 | x4 | x4 | x4 | x4 | x4 | x4 | x4 | x4 | x4 | x4 | %68
 x4 | x4 | x4 | x4 | x4 | x4 | x4 | x4 | x4 | E/[Ge]/ x E/[Gg]/ x | x4 | [EGe]2 x2 |] %80

